X:1
T:Bath (Harmonia), 66.66.668
T:Bath (Harmonia), 66.66.668
T:Harmonia Perfecta, 1730
T:Public Domain Courtesy of the Cyber Hymnal™
C:Harmonia Perfecta, 1730
Z:Public Domain
Z:Courtesy of the Cyber Hymnal™
%%score ( 1 2 ) ( 3 4 )
L:1/8
Q:1/4=115
M:4/4
K:C
V:1 treble 
V:2 treble 
V:3 bass 
V:4 bass 
V:1
 [G,C]2 | [G,C]2 D2 [CE]2 [C^F]2 | [DG]6 [CG]2 | [CA]2 G2 [FA]2 [DB]2 | [Ec]6 [Dd]2 | %5
 [Ec]2 [DB]2 [^CA]2 [CG]2 | [D^F]6 (GA) | [DB]2 (AG) [DG]2 z x | [B,G]6 [GB]2 | %9
 [Gc]2 [Fc]2 [Fd]2 [Gd]2 | [Ge]6 [Fc]2 | [Ec]2 [DB]2 [CA]2 ([DB][Ec]) | [Fd]2 [Ec]2 [DB]2 (cd) | %13
 [Ge]2 (dc) c2 z x3 | [Ec]6 |] %15
V:2
 x2 | x2 D2 x4 | x8 | x2 G2 x4 | x8 | x8 | x6 B,2 | x2 E2 x ^F2 C | x8 | x8 | x8 | x8 | x6 G2 | %13
 x2 A2 G3 (B2 F) | x6 |] %15
V:3
 [C,E,]2 | [C,E,]2 [B,,G,]2 [C,G,]2 [A,,A,]2 | [G,,B,]6 [E,C]2 | [F,A,]2 [E,C]2 [D,A,]2 G,2 | %4
 [C,G,]6 [B,,G,]2 | [C,G,]2 [D,G,]2 [E,G,]2 [A,,A,]2 | [D,A,]6 [E,G,]2 | %7
 [B,,G,]2 [C,C]2 [D,A,]2 [D,A,]2 | [G,,G,]6 [G,D]2 | [E,C]2 [F,A,]2 [D,A,]2 [G,B,]2 | %10
 [C,C]6 [F,A,]2 | [C,G,]2 ([D,F,][E,G,]) [F,A,]2 [E,G,]2 | %12
 [D,F,]2 ([E,G,][F,A,]) [G,B,]2 ([A,E][B,D]) | C2 (FE) [G,D]2 [G,D]2 x2 | [C,C]6 |] %15
V:4
 x2 | x8 | x8 | x6 G,2 | x8 | x8 | x8 | x8 | x8 | x8 | x8 | x8 | x8 | C2 F,2 x6 | x6 |] %15

